**kern	**kern	**kern	**kern
*staff4	*staff3	*staff2	*staff1
=1-	=1-	=1-	=1-
*clefF4	*clefGv2	*clefGv2	*clefG2
*k[]	*k[]	*k[]	*k[]
*met(C|)	*met(C|)	*met(C|)	*met(C|)
*M2/2	*M2/2	*M2/2	*M2/2
0r	1E	0r	0r
.	2E/	.	.
.	2E/	.	.
=2	=2	=2	=2
1E	1.G	0r	0r
2E\	.	.	.
2E\	2C/	.	.
=3	=3	=3	=3
1.G	1C	0r	0r
.	2r	.	.
2C/	[2G/	.	.
=4	=4	=4	=4
1C	2G/]	0r	0r
.	2E/	.	.
2r	2F/	.	.
[2G\	2G/	.	.
=5	=5	=5	=5
2G\]	2C/	0r	0r
2E\	2G/	.	.
2F\	2A/	.	.
2G\	2B\	.	.
=6	=6	=6	=6
2C/	1c	0r	0r
2C/	.	.	.
2D\	1B	.	.
2E\	.	.	.
=7	=7	=7	=7
!!linebreak:default
1F	2r	0r	0r
.	2A/	.	.
1E	2B\	.	.
.	[2c\	.	.
=8	=8	=8	=8
2r	2c\]	0r	0r
2D\	2d\	.	.
1E	2B\	.	.
.	[2c\	.	.
=9	=9	=9	=9
1F	4c\]	0r	0r
.	4B\	.	.
.	4c\	.	.
.	4A/	.	.
1G	2B\	.	.
.	2E/	.	.
=10	=10	=10	=10
2E\	2r	0r	0r
2.F\	2A/	.	.
.	2A/	.	.
4E\	.	.	.
4F\	2A/	.	.
4D\	.	.	.
=11	=11	=11	=11
2E\	2G/	0r	0r
2AA/	2c\	.	.
2r	2B\	.	.
2D\	[2A/	.	.
=12	=12	=12	=12
2D\	2A/]	0r	0r
2D\	4G/	.	.
.	4F/	.	.
2C/	2E/	.	.
2F\	2A/	.	.
=13	=13	=13	=13
!!linebreak:default
2E\	2G/	0r	0r
2C/	2E/	.	.
2D\	2F/	.	.
2E\	2G/	.	.
=14	=14	=14	=14
4AA/	2A/	0r	0r
4BB/	.	.	.
4C/	4E/	.	.
4D\	4F/	.	.
4E\	4G/	.	.
4F\	4A/	.	.
4G\	4B\	.	.
4E\	4c\	.	.
=15	=15	=15	=15
4F\	2d\	0r	0r
4E\	.	.	.
4D\	1c	.	.
4C/	.	.	.
1D	.	.	.
.	2B\	.	.
=16	=16	=16	=16
[0C	[0c	0r	1e
.	.	.	2e/
.	.	.	2e/
=17	=17	=17	=17
0C_	0c_	1e	1.g
.	.	2e\	.
.	.	2e\	2c/
=18	=18	=18	=18
0C]	0c]	1.g	1c
.	.	.	2r
.	.	2c\	[2g/
=19	=19	=19	=19
!!pagebreak:default
0r	0r	1c	2g/]
.	.	.	2e/
.	.	2r	2f/
.	.	[2g\	2g/
=20	=20	=20	=20
0r	0r	2g\]	2c/
.	.	2e\	2g/
.	.	2f\	2a/
.	.	2g\	2b\
=21	=21	=21	=21
0r	0r	2c\	1cc
.	.	2c\	.
.	.	2d\	1b
.	.	2e\	.
=22	=22	=22	=22
0r	0r	1f	2r
.	.	.	2a/
.	.	1e	2b\
.	.	.	[2cc\
=23	=23	=23	=23
0r	0r	2r	2cc\]
.	.	2d\	2dd\
.	.	1e	2b\
.	.	.	[2cc\
=24	=24	=24	=24
0r	0r	1f	4cc\]
.	.	.	4b\
.	.	.	4cc\
.	.	.	4a/
.	.	1g	2b\
.	.	.	2e/
=25	=25	=25	=25
!!linebreak:default
0r	0r	2e\	2r
.	.	2.f\	2a/
.	.	.	2a/
.	.	4e\	.
.	.	4f\	2a/
.	.	4d\	.
=26	=26	=26	=26
0r	0r	2e\	2g/
.	.	2A/	2cc\
.	.	2r	2b\
.	.	2d\	[2a/
=27	=27	=27	=27
0r	0r	2d\	2a/]
.	.	2d\	4g/
.	.	.	4f/
.	.	2c\	2e/
.	.	2f\	2a/
=28	=28	=28	=28
0r	0r	2e\	2g/
.	.	2c\	2e/
.	.	2d\	2f/
.	.	2e\	2g/
=29	=29	=29	=29
0r	1r	4A/	2a/
.	.	4B\	.
.	.	4c\	4e/
.	.	4d\	4f/
.	1G	4e\	4g/
.	.	4f\	4a/
.	.	[2g\	4b\
.	.	.	4cc\
=30	=30	=30	=30
0r	2G/	4g\]	2dd\
.	.	4f\	.
.	2G/	2e\	1cc
.	2G/	1d	.
.	2G/	.	2b\
=31	=31	=31	=31
!!linebreak:default
1C	2.A/	0c	0cc
.	4B\	.	.
2C/	4c\	.	.
.	4d\	.	.
2C/	[2e\	.	.
=32	=32	=32	=32
1C	4e\]	0r	0r
.	4d\	.	.
.	4c\	.	.
.	4B\	.	.
1D	2A/	.	.
.	[2B\	.	.
=33	=33	=33	=33
1.E	2B\]	0r	1g
.	2.c\	.	.
.	.	.	2g/
.	4B\	.	.
2E\	4c\	.	2g/
.	4A/	.	.
=34	=34	=34	=34
1E	1B	1r	2g/
.	.	.	2g/
[1AA	[1A	1c	2.a/
.	.	.	4b\
=35	=35	=35	=35
1AA]	1A]	2c\	4cc\
.	.	.	4dd\
.	.	2c\	2.ee\
1r	2r	1c	.
.	.	.	4dd\
.	2A/	.	4cc\
.	.	.	4b\
=36	=36	=36	=36
0r	2F/	1d	2a/
.	1G	.	1b
.	.	[1e	.
.	[2A/	.	[2cc\
=37	=37	=37	=37
!!linebreak:default
1AA	4A/]	2e\]	4cc\]
.	4G/	.	4b\
.	2A/	2e\	4cc\
.	.	.	4a/
2E\	2E/	1e	1b
2E\	[2e\	.	.
=38	=38	=38	=38
1F	4e\]	1A	0a
.	4c\	.	.
.	2c\	.	.
1D	1d	2r	.
.	.	2A/	.
=39	=39	=39	=39
1E	1B	2e\	1g
.	.	2e\	.
1D	2r	1f	1a
.	2A/	.	.
=40	=40	=40	=40
1r	1.B	1d	0r
1E	.	[1e	.
.	2B\	.	.
=41	=41	=41	=41
2E\	1c	1e]	0r
2E\	.	.	.
1F	1A	1r	.
=42	=42	=42	=42
1D	1B	0r	0r
1E	2r	.	.
.	2B\	.	.
=43	=43	=43	=43
2r	2B\	0r	0r
2E\	2B\	.	.
2E\	1c	.	.
2E\	.	.	.
=44	=44	=44	=44
!!pagebreak:default
1F	1d	1r	1a
1G	[1B	1d	[1b
=45	=45	=45	=45
1E	1B]	1.e	2b\]
.	.	.	2b\
1r	1r	.	1cc
.	.	2e\	.
=46	=46	=46	=46
0r	0r	1f	1a
.	.	1d	1b
=47	=47	=47	=47
0r	0r	1e	2r
.	.	.	2b\
.	.	2r	2b\
.	.	2e\	2b\
=48	=48	=48	=48
0r	0r	2e\	1cc
.	.	2e\	.
.	.	1f	1dd
=49	=49	=49	=49
1.E	1.B	1g	1b
.	.	[1e	1r
2E\	2B\	.	.
=50	=50	=50	=50
1E	1c	1e]	1g
1F	1A	2.c\	4cc\
.	.	.	4cc\
.	.	.	[2a/
.	.	4f\	.
=51	=51	=51	=51
!!linebreak:default
1D	1d	2f\	2a/]
.	.	2f\	2.dd\
1G	[1B	2d\	.
.	.	.	4cc\
.	.	2d\	4b\
.	.	.	4a/
=52	=52	=52	=52
1E	1B]	1e	1g
2r	2r	2r	2r
2E\	2B\	[2e\	2g/
=53	=53	=53	=53
1A	1c	2e\]	2e/
.	.	2c\	2f/
1G	1B	2d\	1g
.	.	2B\	.
=54	=54	=54	=54
2F\	1A	2c\	1a
2F\	.	2d\	.
1E	1B	[1e	1g
=55	=55	=55	=55
1A	1c	2e\]	2r
.	.	2f\	2cc\
2G\	2d\	2g\	2b\
2F\	2A/	2d\	[2a/
=56	=56	=56	=56
1E	1c	1e	2a/]
.	.	.	2g/
1D	1d	1f	2a/
.	.	.	[2b\
=57	=57	=57	=57
0E	0B	[0e	4b\]
.	.	.	4a/
.	.	.	1a
.	.	.	2g#/
=58	=58	=58	=58
!!linebreak:default
1AA	0A	0e_	0a
2r	.	.	.
[2AA/	.	.	.
=59	=59	=59	=59
2AA/]	2r	0e]	0r
2AA/	1E	.	.
2.C/	.	.	.
.	2E/	.	.
4D\	.	.	.
=60	=60	=60	=60
1E	2.G/	0r	0r
.	4A/	.	.
2r	1B	.	.
2G\	.	.	.
=61	=61	=61	=61
2G\	2r	0r	0r
2F\	2d\	.	.
2G\	2d\	.	.
2E\	2c\	.	.
=62	=62	=62	=62
1D	2d\	0r	0r
.	2B\	.	.
2r	1A	.	.
2D\	.	.	.
=63	=63	=63	=63
1F	2r	0r	0r
.	2A/	.	.
2F\	1c	.	.
2F\	.	.	.
=64	=64	=64	=64
2E\	2c\	0r	0r
2C/	2c\	.	.
2D\	2B\	.	.
2BB/	2G/	.	.
=65	=65	=65	=65
!!linebreak:default
0AA	2A/	1.A	0r
.	2F/	.	.
.	2E/	.	.
.	[2c\	2A/	.
=66	=66	=66	=66
2r	4c\]	2A/	0r
.	4B\	.	.
2.F\	4A/	2A/	.
.	4G/	.	.
.	4A/	2A/	.
4E\	4G/	.	.
4D\	4F/	2A/	.
4C/	4E/	.	.
=67	=67	=67	=67
4D\	4F/	2A/	0r
4C/	4E/	.	.
4BB/	4D/	2A/	.
4AA/	4C/	.	.
1BB	1D	2G/	.
.	.	2G/	.
=68	=68	=68	=68
2.AA/	1E	4A/	1.a
.	.	4B\	.
.	.	4c\	.
4BB/	.	4d\	.
2C/	2r	2e\	.
2D\	[2A/	2f\	2a/
=69	=69	=69	=69
2AA/	4A/]	2e\	2a/
.	4B\	.	.
2.A\	2.c\	1f	2a/
.	.	.	2a/
4G\	4B\	.	.
4F\	4A/	[2e\	2a/
4E\	4G/	.	.
=70	=70	=70	=70
1F	1A	2e\]	2a/
.	.	2d\	2a/
1E	1B	1e	2g/
.	.	.	2g/
=71	=71	=71	=71
!!pagebreak:default
1AA	1A	2r	1a
.	.	2e\	.
1r	1r	1f	2r
.	.	.	2a/
=72	=72	=72	=72
0r	0r	2f\	1cc
.	.	2f\	.
.	.	2e\	2cc\
.	.	2c\	2cc\
=73	=73	=73	=73
0r	0r	2d\	2b\
.	.	2B\	2g/
.	.	1A	2a/
.	.	.	2f/
=74	=74	=74	=74
0r	0r	2.c\	2.e/
.	.	4d\	4f/
.	.	2.e\	2g/
.	.	.	[2c/
.	.	4f\	.
=75	=75	=75	=75
0r	0r	2g\	4c/]
.	.	.	4d/
.	.	2c\	4e/
.	.	.	4f/
.	.	2.e\	2g/
.	.	.	2c/
.	.	4f\	.
=76	=76	=76	=76
0r	0r	2g\	2.e/
.	.	2.c\	.
.	.	.	4f/
.	.	.	2g/
.	.	4d\	.
.	.	4e\	[2c/
.	.	4f\	.
=77	=77	=77	=77
!!linebreak:default
0r	0r	2g\	4c/]
.	.	.	4d/
.	.	4c\	4e/
.	.	4d\	4f/
.	.	4e\	4g/
.	.	4f\	4a/
.	.	[2g\	4b\
.	.	.	4cc\
=78	=78	=78	=78
0r	0r	2g\]	2dd\
.	.	2e\	1cc
.	.	2f\	.
.	.	2g\	2b\
=79	=79	=79	=79
0r	0r	1c	1cc
.	.	2r	2r
.	.	2e\	2g/
=80	=80	=80	=80
0r	0r	2f\	2a/
.	.	2d\	2f/
.	.	2e\	2e/
.	.	2e\	2g/
=81	=81	=81	=81
0r	0r	2f\	2a/
.	.	2d\	2b\
.	.	2e\	2.cc\
.	.	4A/	.
.	.	4B\	4b\
=82	=82	=82	=82
0r	0r	4c\	2a/
.	.	4d\	.
.	.	1e	2g/
.	.	.	1f
.	.	2d\	.
=83	=83	=83	=83
!!linebreak:default
1E	1B	1e	0e
[1E	2B\	2r	.
.	2B\	2e\	.
=84	=84	=84	=84
2E\]	1c	2e\	0r
2E\	.	2e\	.
2F\	2A/	2c\	.
2D\	2B\	2d\	.
=85	=85	=85	=85
2E\	2G/	2B\	1r
2C/	2E/	2A/	.
2D\	2F/	2A/	2r
2BB/	2D/	2G/	2b\
=86	=86	=86	=86
1AA	2E/	2A/	1cc
.	2A/	2e\	.
2r	2A/	2e\	2a/
[2AA/	2A/	2e\	[2cc\
=87	=87	=87	=87
4AA/]	1c	2.e\	2cc\]
4BB/	.	.	.
4C/	.	.	4b\
4D\	.	4f\	4a/
2E\	2B\	2g\	2g/
[2F\	[2A/	4f\	2cc\
.	.	4e\	.
=88	=88	=88	=88
2F\]	2A/]	1d	2a/
4E\	4G/	.	2b\
4D\	4F/	.	.
2.C/	4E/	2.e\	1cc
.	4D/	.	.
.	[2G/	.	.
4D\	.	4f\	.
=89	=89	=89	=89
!!linebreak:default
2E\	2G/]	2g\	2b\
2F\	2A/	2f\	1a
2G\	2B\	2d\	.
2C/	2c\	2e\	[2g/
=90	=90	=90	=90
1D	1A	0d	2g/]
.	.	.	2f#/
1r	1G	.	[1g
=91	=91	=91	=91
1.E	1r	0r	1g]
.	[1B	.	1r
2E\	.	.	.
=92	=92	=92	=92
2E\	2B\]	0r	0r
2E\	2B\	.	.
2E\	2B\	.	.
2E\	2B\	.	.
=93	=93	=93	=93
1G	2B\	0r	0r
.	2B\	.	.
2G\	1d	.	.
2D\	.	.	.
=94	=94	=94	=94
2D\	2d\	1r	0r
1F	2A/	.	.
.	2A/	2r	.
2E\	[2c\	[2e\	.
=95	=95	=95	=95
[0E	2c\]	2e\]	2r
.	2B\	2e\	1b
.	[1B	2e\	.
.	.	2e\	2b\
=96	=96	=96	=96
!!pagebreak:default
0E]	0B]	2e\	2b\
.	.	2e\	2b\
.	.	1g	2b\
.	.	.	2b\
=97	=97	=97	=97
2r	1r	2g\	1dd
2G\	.	2d\	.
2G\	1d	2d\	2dd\
2F\	.	[2f\	2a/
=98	=98	=98	=98
2D\	2d\	2f\]	2a/
1A	2c\	2e\	1cc
.	2A/	1e	.
2E\	[2e\	.	2b\
=99	=99	=99	=99
2E\	2e\]	1.g	1b
2E\	2B\	.	.
1G	2B\	.	2r
.	2B\	2g\	[2dd\
=100	=100	=100	=100
1D	1d	2f\	2dd\]
.	.	2d\	2dd\
1r	1A	[1a	2cc\
.	.	.	2a/
=101	=101	=101	=101
0r	2r	2a\]	1.ee
.	2A/	2a\	.
.	1c	2e\	.
.	.	2e\	2ee\
=102	=102	=102	=102
2r	1G	1g	2b\
2G\	.	.	2b\
2G\	2r	1d	1dd
2G\	2d\	.	.
=103	=103	=103	=103
!!linebreak:default
2F\	2d\	0r	1a
2D\	2d\	.	.
2F\	2c\	.	1r
2F\	2A/	.	.
=104	=104	=104	=104
1C	2c\	2r	1r
.	2c\	2g\	.
1r	1G	2g\	2r
.	.	2g\	2dd\
=105	=105	=105	=105
0r	0r	2f\	2dd\
.	.	2d\	2dd\
.	.	2f\	2cc\
.	.	2f\	2a/
=106	=106	=106	=106
1C	1G	1c	2cc\
.	.	.	2cc\
[1C	[1c	1e	1g
=107	=107	=107	=107
2C/]	2c\]	2e\	2r
2C/	2c\	2e\	1ee
2C/	2c\	2e\	.
2D\	2B\	[2f\	2dd\
=108	=108	=108	=108
1E	2c\	2f\]	2cc\
.	2G/	1e	2b\
1F	1A	.	2a/
.	.	2d\	2a/
=109	=109	=109	=109
1E	1B	[0e	1g
1AA	1c	.	1a
=110	=110	=110	=110
0E	0B	0e]	0g
=111	=111	=111	=111
!!linebreak:default
0r	0r	0r	1.e
.	.	.	2e/
=112	=112	=112	=112
0r	0r	0r	1f
.	.	.	1d
=113	=113	=113	=113
0r	0r	1.e	2.g/
.	.	.	4a/
.	.	.	2b\
.	.	2e\	[2cc\
=114	=114	=114	=114
0r	0r	1f	2cc\]
.	.	.	1a
.	.	1d	.
.	.	.	[2b\
=115	=115	=115	=115
0r	0r	1.e	2b\]
.	.	.	2g/
.	.	.	1g
.	.	2c\	.
=116	=116	=116	=116
0r	0r	2.c\	2r
.	.	.	2cc\
.	.	4d\	.
.	.	2e\	2cc\
.	.	[2f\	2cc\
=117	=117	=117	=117
!!linebreak:default
0r	0r	2f\]	2a/
.	.	1d	2a/
.	.	.	2.dd\
.	.	[2g\	.
.	.	.	4cc\
=118	=118	=118	=118
0r	1r	4g\]	4b\
.	.	4f\	4a/
.	.	1e	1cc
.	[1E	.	.
.	.	4d\	4b\
.	.	4c\	4a/
=119	=119	=119	=119
0r	2E/]	1B	1g
.	2E/	.	.
.	1F	[1A	[1a
=120	=120	=120	=120
1r	1D	1A]	1a]
[1E	2.G/	1r	1r
.	4A/	.	.
=121	=121	=121	=121
2E\]	2B\	0r	0r
2E\	1c	.	.
1F	.	.	.
.	[2A/	.	.
=122	=122	=122	=122
1D	2A/]	0r	0r
.	1B	.	.
[1E	.	.	.
.	2G/	.	.
=123	=123	=123	=123
!!pagebreak:default
2E\]	1G	0r	0r
2C/	.	.	.
2.C/	2r	.	.
.	2c\	.	.
4D\	.	.	.
=124	=124	=124	=124
2E\	2c\	0r	0r
1F	2c\	.	.
.	2A/	.	.
2D\	2A/	.	.
=125	=125	=125	=125
2D\	2.d\	0r	0r
2.G\	.	.	.
.	4c\	.	.
.	4B\	.	.
4F\	4A/	.	.
4E\	[2c\	.	.
4D\	.	.	.
=126	=126	=126	=126
2C/	4c\]	2r	0r
.	4B\	.	.
2D\	1A	2d\	.
1BB	.	2d\	.
.	2G#/	2d\	.
=127	=127	=127	=127
1AA	1A	1c	1a
1r	1r	1f	2a/
.	.	.	2a/
=128	=128	=128	=128
0r	0r	2e\	2g/
.	.	2c\	2cc\
.	.	2d\	2b\
.	.	2e\	2g/
=129	=129	=129	=129
!!linebreak:default
0r	0r	2f\	2a/
.	.	4e\	2b\
.	.	4d\	.
.	.	4c\	2.cc\
.	.	4B\	.
.	.	4A/	.
.	.	4B\	4b\
=130	=130	=130	=130
0r	0r	4c\	2a/
.	.	4d\	.
.	.	1e	2g/
.	.	.	1f
.	.	2d\	.
=131	=131	=131	=131
2r	1r	1.e	2e/
1A	.	.	1cc
.	2r	.	.
2G\	[2e\	[2g\	2b\
=132	=132	=132	=132
2E\	2e\]	2g\]	2g/
1G	2d\	2g\	1b
.	2B\	2d\	.
2F\	[2d\	[2f\	2a/
=133	=133	=133	=133
2D\	2d\]	2f\]	2f/
1F	2c\	2f\	1a
.	2A/	2c\	.
2E\	[2c\	2e\	2g/
=134	=134	=134	=134
2C/	2c\]	2.g\	2.e/
1G	2B\	.	.
.	.	4f\	4f/
.	4G/	4e\	2g/
.	4A/	4d\	.
2F\	4B\	[2f\	[2a/
.	4c\	.	.
=135	=135	=135	=135
!!linebreak:default
2D\	2d\	4f\]	4a/]
.	.	4e\	4g/
2E\	2G/	2c\	1g
1D	1A	1d	.
.	.	.	2f#/
=136	=136	=136	=136
2r	1G	0B	0g
1E	.	.	.
.	2r	.	.
2E\	[2B\	.	.
=137	=137	=137	=137
2E\	2B\]	0r	0r
2E\	2B\	.	.
[1G	2B\	.	.
.	2B\	.	.
=138	=138	=138	=138
2G\]	1.d	0r	0r
4F\	.	.	.
4E\	.	.	.
1D	.	.	.
.	4c\	.	.
.	4B\	.	.
=139	=139	=139	=139
2r	1A	0r	0r
1A	.	.	.
.	2r	.	.
2G\	[2e\	.	.
=140	=140	=140	=140
2A\	2e\]	0r	0r
2F\	2d\	.	.
1E	2e\	.	.
.	2c\	.	.
=141	=141	=141	=141
!!linebreak:default
2r	1B	0r	0r
2E\	.	.	.
2F\	2r	.	.
2E\	2B\	.	.
=142	=142	=142	=142
2C/	2c\	1r	0r
2D\	2B\	.	.
[1E	2.G/	2r	.
.	.	[2e\	.
.	4A/	.	.
=143	=143	=143	=143
1E]	1B	2e\]	2r
.	.	2e\	1b
1r	1r	2e\	.
.	.	2e\	2b\
=144	=144	=144	=144
0r	0r	1.g	2b\
.	.	.	2b\
.	.	.	[1dd
.	.	4f\	.
.	.	4e\	.
=145	=145	=145	=145
0r	0r	1d	2dd\]
.	.	.	4cc\
.	.	.	4b\
.	.	2r	1a
.	.	[2a\	.
=146	=146	=146	=146
0r	0r	2a\]	2r
.	.	2g\	1ee
.	.	2a\	.
.	.	2f\	2dd\
=147	=147	=147	=147
!!pagebreak:default
0r	0r	1e	2ee\
.	.	.	2cc\
.	.	2r	1b
.	.	2e\	.
=148	=148	=148	=148
0r	0r	2f\	2r
.	.	2e\	2b\
.	.	2c\	2cc\
.	.	2d\	2b\
=149	=149	=149	=149
0r	0r	2e\	2g/
.	.	2A/	1a
.	.	2B\	.
.	.	2c\	[2g/
=150	=150	=150	=150
1D	1d	1A	2g/]
.	.	.	2f#/
2E\	2c\	1G	1g
2G\	[2B\	.	.
=151	=151	=151	=151
2G\	2B\]	1r	1d
2F\	2A/	.	.
1E	2B\	1G	2e/
.	[2c\	.	2e/
=152	=152	=152	=152
2r	2c\]	1A	2f/
2D\	2d\	.	2f/
1E	2B\	1G	1e
.	[2c\	.	.
=153	=153	=153	=153
2F\	2c\]	2A/	2r
2F\	2A/	2A/	2d/
1E	2B\	1G	1e
.	[2c\	.	.
=154	=154	=154	=154
!!linebreak:default
2r	2c\]	2A/	2f/
2D\	2d\	2F/	2f/
1E	2B\	2G/	1e
.	[2c\	2G/	.
=155	=155	=155	=155
1F	2c\]	4A/	2r
.	.	4B\	.
.	4B\	4c\	1a
.	4A/	4d\	.
1E	1B	1e	.
.	.	.	2g/
=156	=156	=156	=156
0AA	0A	0e	2a/
.	.	.	1cc
.	.	.	4b\
.	.	.	4a/
=157	=157	=157	=157
1E	1B	1e	1g
[1F	[1A	[1d	1a
=158	=158	=158	=158
2F\]	2A/]	2d\]	0r
2E\	2G/	2c\	.
2D\	2F/	2B\	.
2C/	[2E/	[2A/	.
=159	=159	=159	=159
1BB	2E/]	2A/]	1b
.	2D/	2G#/	.
2AA/	2E/	2.A/	[1cc
[2A\	[2F/	.	.
.	.	4B\	.
=160	=160	=160	=160
!!linebreak:default
2A\]	2F/]	4c\	2cc\]
.	.	4A/	.
2G\	2G/	1d	2b\
2F\	2D/	.	2a/
2E\	2G/	[2c\	2g/
=161	=161	=161	=161
1D	2A/	2c\]	1f
.	2F/	2B\	.
2C/	2G/	2.c\	2e/
[2c\	[2C/	.	[2ee\
.	.	4d\	.
=162	=162	=162	=162
2c\]	2C/]	4e\	2ee\]
.	.	4c\	.
2B\	2G/	4d\	2dd\
.	.	4e\	.
2A\	2A/	4f\	2cc\
.	.	4e\	.
2G\	2B\	[2e\	2b\
=163	=163	=163	=163
1F	2c\	2e\]	1a
.	2A/	2d\	.
[1E	[1B	[1e	[1g
=164	=164	=164	=164
1E]	2B\]	0e_	0g_
.	2G/	.	.
2.C/	2.c\	.	.
4D\	4B\	.	.
=165	=165	=165	=165
0E	0B	0e]	0g]
==	==	==	==
*-	*-	*-	*-
